X:414
T: Nun naht sich die heilige Neujahrszeit (5-9), S.23
N: P0684
O: Lothringen
S: MERKELBACH-PINCK, Angelika: Verklingende Weisen, Bd 5, Kassel 1962]
R: geistliches, religises Lied]
M: 3/4
L: 1/8
K: F
C2 | F2F2G2 | A2A2B2 | c4AB | c4
f2 | c2c2AG | F2C2FG | A2A2GF | F4
C2 | F2F2GG | AAA2B2 | c4A2 | c4
f2 | c2c2AG | F2C2FG | A2A2GF | F4
f2 | ccc2AG | F2C2FG | AAA2GF | F4

@@@ Tune index: 7964
